img/nd.svg

<?xml version="1.0" encoding="utf-8"?>
<!-- Generator: Adobe Illustrator 13.0.2, SVG Export Plug-In . SVG Version: 6.00 Build 14948)  -->
<!DOCTYPE svg PUBLIC "-//W3C//DTD SVG 1.1//EN" "http://www.w3.org/Graphics/SVG/1.1/DTD/svg11.dtd">
<svg version="1.1" id="Layer_1" xmlns="http://www.w3.org/2000/svg" xmlns:xlink="http://www.w3.org/1999/xlink" x="0px" y="0px"
	 width="64.000977px" height="64px" viewBox="0 0 64.000977 64" enable-background="new 0 0 64.000977 64" xml:space="preserve">
<g>
	<circle fill="#FFFFFF" cx="32.064453" cy="31.788086" r="29.012695"/>
	<g>
		<path d="M31.943848,0C40.896484,0,48.476562,3.105469,54.6875,9.314453C60.894531,15.486328,64.000977,23.045898,64.000977,32
			s-3.048828,16.457031-9.145508,22.513672C48.417969,60.837891,40.779297,64,31.942871,64
			c-8.648926,0-16.152832-3.142578-22.513672-9.429688C3.144043,48.286133,0,40.761719,0,32.000977
			c0-8.723633,3.144043-16.285156,9.429199-22.68457C15.640137,3.105469,23.14502,0,31.943848,0z M32.060547,5.771484
			c-7.275391,0-13.429688,2.570312-18.458496,7.714844C8.381836,18.783203,5.772949,24.954102,5.772949,32
			c0,7.125,2.589844,13.256836,7.77002,18.400391c5.181152,5.181641,11.352051,7.770508,18.515625,7.770508
			c7.123047,0,13.332031-2.608398,18.626953-7.828125C55.713867,45.466797,58.228516,39.353516,58.228516,32
			c0-7.3125-2.553711-13.484375-7.65625-18.513672C45.504883,8.341797,39.333984,5.771484,32.060547,5.771484z M44.117188,24.456055
			v5.485352H20.859863v-5.485352H44.117188z M44.117188,34.743164v5.481445H20.859863v-5.481445H44.117188z"/>
	</g>
</g>
</svg>

<svg xmlns="http://www.w3.org/2000/svg" width="64.001" height="64" viewBox="0 0 64.000977 64"><circle fill="#FFF" cx="32.064" cy="31.788" r="29.013"/><path d="M31.944 0c8.952 0 16.533 3.105 22.744 9.314C60.895 15.486 64 23.046 64 32s-3.049 16.457-9.146 22.514C48.418 60.838 40.78 64 31.943 64c-8.65 0-16.153-3.143-22.514-9.43C3.144 48.286 0 40.762 0 32.001c0-8.724 3.144-16.285 9.43-22.685C15.64 3.106 23.144 0 31.943 0zm.117 5.771c-7.276 0-13.43 2.57-18.459 7.715-5.22 5.297-7.83 11.468-7.83 18.514 0 7.125 2.59 13.257 7.771 18.4 5.181 5.182 11.352 7.77 18.516 7.77 7.123 0 13.332-2.607 18.627-7.827 5.028-4.876 7.543-10.99 7.543-18.343 0-7.313-2.554-13.484-7.657-18.514-5.067-5.144-11.238-7.715-18.511-7.715zm12.056 18.685v5.485H20.86v-5.485h23.257zm0 10.287v5.482H20.86v-5.482h23.257z"/></svg>
